dist/assets/images/icons/ico-slide-5 5.svg

<svg width="25" height="26" viewBox="0 0 25 26" fill="none" xmlns="http://www.w3.org/2000/svg">
<path d="M14.4688 17.9105C16.5342 17.12 18.0018 15.1244 18.0018 12.7803C18.0018 10.4377 16.5342 8.44181 14.4688 7.65045V1.177C20.0383 2.11327 24.2858 6.94479 24.2858 12.7803C24.2858 18.6167 20.0383 23.4485 14.4688 24.3848V17.9105Z" stroke="#DF0112" stroke-miterlimit="10" stroke-linecap="round" stroke-linejoin="round"/>
<path d="M12.5038 7.28289C9.46671 7.28289 7.00574 9.74416 7.00574 12.78C7.00574 13.5796 7.1798 14.3365 7.4861 15.0213L2.90756 19.5986C1.53689 17.6737 0.723145 15.3246 0.723145 12.78C0.723145 6.27418 5.99703 1 12.5038 1V7.28289Z" stroke="#0000FF" stroke-miterlimit="10" stroke-linecap="round" stroke-linejoin="round"/>
<path d="M12.505 18.2783C10.9865 18.2783 9.61195 17.6627 8.61767 16.6685L4.17432 21.1106C6.30631 23.2429 9.25205 24.5615 12.505 24.5615V18.2783Z" stroke="#DF0112" stroke-miterlimit="10" stroke-linecap="round" stroke-linejoin="round"/>
<line x1="10.1358" y1="8.01614" x2="7.85562" y2="1.93557" stroke="#0000FF"/>
<line y1="-0.5" x2="6.49405" y2="-0.5" transform="matrix(-0.78563 -0.618697 0.618686 -0.785638 8.96826 8.68091)" stroke="#0000FF"/>
<line x1="7.42368" y1="11.3611" x2="1.38655" y2="9.6097" stroke="#0000FF"/>
<line y1="-0.5" x2="6.49405" y2="-0.5" transform="matrix(-0.998605 0.0528059 -0.0528617 -0.998602 7.20752 13.1611)" stroke="#0000FF"/>
</svg>

<svg width="25" height="26" fill="none" xmlns="http://www.w3.org/2000/svg"><path d="M14.469 17.91a5.492 5.492 0 003.533-5.13 5.494 5.494 0 00-3.533-5.13V1.177c5.57.936 9.817 5.768 9.817 11.603 0 5.837-4.248 10.668-9.817 11.605V17.91z" stroke="#DF0112" stroke-miterlimit="10" stroke-linecap="round" stroke-linejoin="round"/><path d="M12.504 7.283a5.497 5.497 0 00-5.498 5.497c0 .8.174 1.556.48 2.241L2.908 19.6a11.712 11.712 0 01-2.185-6.82C.723 6.274 5.997 1 12.503 1v6.283z" stroke="#00F" stroke-miterlimit="10" stroke-linecap="round" stroke-linejoin="round"/><path d="M12.505 18.278a5.481 5.481 0 01-3.887-1.61l-4.444 4.443a11.744 11.744 0 008.331 3.45v-6.283z" stroke="#DF0112" stroke-miterlimit="10" stroke-linecap="round" stroke-linejoin="round"/><path stroke="#00F" d="M10.136 8.016l-2.28-6.08"/><path transform="rotate(-141.779 5.988 2.787) skewX(.001)" stroke="#00F" d="M0-.5h6.494"/><path stroke="#00F" d="M7.424 11.361L1.387 9.61"/><path transform="rotate(176.973 3.43 6.676) skewX(.003)" stroke="#00F" d="M0-.5h6.494"/></svg>
